X: 32487
T: Plan 9 From Outer Space
R: reel
M: 4/4
K: Gmajor
G,3 B, A,G,A,C|B,A,B,C D2 EF|G3 B AGEF|GDED B,2 A,B,|
G,3 B, A,G,A,C|B,A,B,C D2 EF|GCCB, C3 E|1 DCDE FDCA,:|2 DCDE FGAB||
|:cEED E3 c|BGGF G2 GB|AGFG AGFE|DGFE DGAB|
cEED E3 c|BGGF G2 GB|AGFG AcBA|1 BGGF G2 AB:|2 BGGF G4||

